X: 2227
T: PADDY HANDLY'S GOOSE
Q: "Reel."
R: Reel.
%R: reel
B: James Kerr "Merry Melodies" v.2 p.25 #227
Z: 2016 John Chambers <jc:trillian.mit.edu>
N: The A in bar 9 is probably a typo, and should be G.
M: C
L: 1/8
K: G
|:\
vGEDE GABd | e2(de) gedB |\
e2(de) gedB | A2(AG) AcBA |\
GEDE GABd | e2(de) gedB |\
egde BdAB | G2G2G2 :|
|:\
(3(BcB) AB (3(BcB) GB | (3(cec) Ac (3(cec) Ac |\
(3(BcB) GB (3(BcB) GB | AGEG A2(Ac) |\
(3(BcB) GB (3(BcB) GB | (3(cec) Ac (3(cec) Ac |\
Bdef gage | dBAB G2 :|

%%sep 1 1 500
%%sep 1 1 500

